src/assets/media/svg/sprite/like.svg

<svg width="14" height="14" viewBox="0 0 14 14" xmlns="http://www.w3.org/2000/svg">
<path d="M12.5 7.75H13C13.2652 7.75 13.5196 7.64464 13.7071 7.45711C13.8946 7.26957 14 7.01522 14 6.75C14 6.48478 13.8946 6.23043 13.7071 6.04289C13.5196 5.85536 13.2652 5.75 13 5.75H7.5C7.83436 4.27341 8.00208 2.76397 8 1.25C8 0.984784 7.89464 0.73043 7.70711 0.542893C7.51957 0.355357 7.26522 0.25 7 0.25C6.73478 0.25 6.48043 0.355357 6.29289 0.542893C6.10536 0.73043 6 0.984784 6 1.25C6 1.25 5 6.75 1.5 6.75H0V12.75H2.5C3.5 12.75 5.5 13.75 6.5 13.75H11.5C11.7652 13.75 12.0196 13.6446 12.2071 13.4571C12.3946 13.2696 12.5 13.0152 12.5 12.75C12.5 12.4848 12.3946 12.2304 12.2071 12.0429C12.0196 11.8554 11.7652 11.75 11.5 11.75H12C12.2652 11.75 12.5196 11.6446 12.7071 11.4571C12.8946 11.2696 13 11.0152 13 10.75C13 10.4848 12.8946 10.2304 12.7071 10.0429C12.5196 9.85536 12.2652 9.75 12 9.75H12.5C12.7652 9.75 13.0196 9.64464 13.2071 9.45711C13.3946 9.26957 13.5 9.01522 13.5 8.75C13.5 8.48478 13.3946 8.23043 13.2071 8.04289C13.0196 7.85536 12.7652 7.75 12.5 7.75Z" />
</svg>

<svg xmlns="http://www.w3.org/2000/svg" width="14" height="14"><path d="M12.5 7.75h.5a1 1 0 1 0 0-2H7.5a20.3 20.3 0 0 0 .5-4.5 1 1 0 0 0-2 0s-1 5.5-4.5 5.5H0v6h2.5c1 0 3 1 4 1h5a1 1 0 0 0 0-2h.5a1 1 0 0 0 0-2h.5a1 1 0 1 0 0-2"/></svg>
